src/assets/footer-right-img.svg

<svg width="250" height="470" viewBox="0 0 250 470" fill="none" xmlns="http://www.w3.org/2000/svg">
<path d="M0.273926 486H169.794C250.178 486 315.342 420.836 315.342 340.452H145.822C65.438 340.452 0.273926 405.616 0.273926 486Z" fill="#ffffff0d"/>
<path d="M0.273926 140.11V354.151C80.6578 354.151 145.822 288.987 145.822 208.603V-5.43835C65.438 -5.43835 0.273926 59.7257 0.273926 140.11Z" fill="#ffffff0d"/>
<path d="M479.726 -14H310.206C229.822 -14 164.658 51.164 164.658 131.548H334.178C414.562 131.548 479.726 66.3839 479.726 -14Z" fill="#ffffff0d"/>
</svg>

<svg xmlns="http://www.w3.org/2000/svg" width="250" height="470" fill="none"><path fill="#ffffff0d" d="M.274 486h169.52c80.384 0 145.548-65.164 145.548-145.548h-169.52C65.438 340.452.274 405.616.274 486ZM.274 140.11v214.041c80.384 0 145.548-65.164 145.548-145.548V-5.438C65.438-5.438.274 59.726.274 140.11ZM479.726-14h-169.52c-80.384 0-145.548 65.164-145.548 145.548h169.52c80.384 0 145.548-65.164 145.548-145.548Z"/></svg>
